X: 21452
M: 2/4
L: 1/16
K: C
V: 1 name="5"
{A}G^F |\
!f!G2 |\
c2cc c2c2 | B2F2 A2B2 | c2cc c2c2 | B2G2 A2B2 |\
cdBc A4 | gafg e2d2 | e4 B4 | c4 "^D.C."z2 |]
!p!EF |\
"_>"G4 ABcd | e4 dcBA | G2E2 {G}FEFG | EFDE C2EF |\
f2d2 z2ag | egfe dcBc | Adgf edcB | cedc BAG"^D.C."^F |]


